images/icons/threema.svg

<svg fill="none" height="24" viewBox="0 0 24 24" width="24" xmlns="http://www.w3.org/2000/svg" xmlns:xlink="http://www.w3.org/1999/xlink"><clipPath id="a"><path d="m1.65002 0h20.6891v24h-20.6891z"/></clipPath><g clip-path="url(#a)"><path d="m18.3527 20.4886c.9725 0 1.7594.7869 1.7594 1.7594 0 .9724-.7869 1.7593-1.7594 1.7593s-1.7519-.7869-1.7519-1.7593c0-.9725.7794-1.7594 1.7519-1.7594zm-12.66438 0c.97248 0 1.75936.7869 1.75936 1.7594 0 .9724-.78688 1.7593-1.75936 1.7593-.97247 0-1.75193-.7869-1.75193-1.7593-.00742-.9725.77946-1.7594 1.75193-1.7594zm6.33218 0c.9725 0 1.7594.7869 1.7594 1.7594 0 .9724-.7869 1.7593-1.7594 1.7593-.9724 0-1.7519-.7869-1.7519-1.7593-.0074-.9725.7795-1.7594 1.7519-1.7594zm0-20.48127578c5.7012 0 10.3186 4.06804578 10.3186 9.07887578 0 5.0108-4.6174 9.0789-10.3186 9.0789-1.6183 0-3.15494-.3267-4.52086-.9131l-5.16671 1.2917 1.10609-4.417c-1.09124-1.4401-1.72966-3.1772-1.72966-5.0405-.00742-5.01083 4.60996-9.07887578 10.31114-9.07887578zm0 4.23878578c-1.6183 0-2.92482 1.30653-2.92482 2.92484v1.16548h-.11135c-.25982 0-.46767.20786-.46767.46768v4.12739c0 .2599.20785.4677.46767.4677h6.08727c.2598 0 .4676-.2078.4676-.4677v-4.12739c0-.25982-.2078-.46768-.4676-.46768h-.1114v-1.16548c-.0148-1.61831-1.3214-2.92484-2.9397-2.92484zm0 1.16548c.9725 0 1.7594.78689 1.7594 1.75194v1.16548h-3.5187v-1.16548c0-.96505.7869-1.75194 1.7593-1.75194z" fill="#000"/></g></svg>

<svg width="24" height="24" viewBox="0 0 24 24" fill="none" xmlns="http://www.w3.org/2000/svg">
<g clip-path="url(#clip0_1432_8774)">
<path d="M18.3527 20.4886C19.3252 20.4886 20.1121 21.2755 20.1121 22.248C20.1121 23.2204 19.3252 24.0073 18.3527 24.0073C17.3802 24.0073 16.6008 23.2204 16.6008 22.248C16.6008 21.2755 17.3802 20.4886 18.3527 20.4886ZM5.68832 20.4886C6.6608 20.4886 7.44768 21.2755 7.44768 22.248C7.44768 23.2204 6.6608 24.0073 5.68832 24.0073C4.71585 24.0073 3.93639 23.2204 3.93639 22.248C3.92897 21.2755 4.71585 20.4886 5.68832 20.4886ZM12.0205 20.4886C12.993 20.4886 13.7799 21.2755 13.7799 22.248C13.7799 23.2204 12.993 24.0073 12.0205 24.0073C11.0481 24.0073 10.2686 23.2204 10.2686 22.248C10.2612 21.2755 11.0481 20.4886 12.0205 20.4886ZM12.0205 0.00732422C17.7217 0.00732422 22.3391 4.07537 22.3391 9.0862C22.3391 14.097 17.7217 18.1651 12.0205 18.1651C10.4022 18.1651 8.86556 17.8384 7.49964 17.252L2.33293 18.5437L3.43902 14.1267C2.34778 12.6866 1.70936 10.9495 1.70936 9.0862C1.70194 4.07537 6.31932 0.00732422 12.0205 0.00732422ZM12.0205 4.24611C10.4022 4.24611 9.09568 5.55264 9.09568 7.17095V8.33643H8.98433C8.72451 8.33643 8.51666 8.54429 8.51666 8.80411V12.9315C8.51666 13.1914 8.72451 13.3992 8.98433 13.3992H15.0716C15.3314 13.3992 15.5392 13.1914 15.5392 12.9315V8.80411C15.5392 8.54429 15.3314 8.33643 15.0716 8.33643H14.9602V7.17095C14.9454 5.55264 13.6388 4.24611 12.0205 4.24611ZM12.0205 5.41159C12.993 5.41159 13.7799 6.19848 13.7799 7.16353V8.32901H10.2612V7.16353C10.2612 6.19848 11.0481 5.41159 12.0205 5.41159Z" fill="black"/>
</g>
<defs>
<clipPath id="clip0_1432_8774">
<rect width="20.6891" height="24" fill="white" transform="translate(1.65002)"/>
</clipPath>
</defs>
</svg>
